**kern	**silbe	**harmony	**phrase	**leadinstrument	**rhyme	**timestamp	**harte
*ICvox	*	*M12/8	*	*	*	*	*M12/8
*VRlead	*	*	*	*	*	*	*
*Hstimme	*	*	*	*	*	*	*
*A:	*	*A:	*	*	*	*	*A:
*M12/8	*	*	*	*	*	*	*
*clefC3	*	*	*	*	*	*	*
r;	.	1r;	.	r	.	0	N.C.
=1	=1	=1	=1	=1	=1	=1	=1
*>Letter>A	*>Letter>A	*>Letter>A	*>Letter>A	*>Letter>A	*>Letter>A	*>Letter>A	*>Letter>A
*>Label>Intro	*>Label>Intro	*>Label>Intro	*>Label>Intro	*>Label>Intro	*>Label>Intro	*>Label>Intro	*>Label>Intro
4.r	.	1.EMm;	newline	r	.	0.464	E:7
4.e	I	.	.	.	.	.	.
8dq	_	.	.	.	.	.	.
4.e	cried	.	.	.	.	.	.
8dq	_	.	.	.	.	.	.
4e	a	.	.	.	.	.	.
16c#	tear	.	.	.	.	.	.
16e	_	.	.	.	.	.	.
=2	=2	=2	=2	=2	=2	=2	=2
*>Letter>B	*>Letter>B	*>Letter>B	*>Letter>B	*>Letter>B	*>Letter>B	*>Letter>B	*>Letter>B
*>Label>Verse	*>Label>Verse	*>Label>Verse	*>Label>Verse	*>Label>Verse	*>Label>Verse	*>Label>Verse	*>Label>Verse
4.c#	_	4.AM	newline	voice	.	5.573	A:maj
4.r	.	4.AMM	.	voice	.	6.625	A:maj7
4.r	.	4.AM	.	voice	.	7.678	A:maj6
8c#	be-	4.AM	.	voice	.	8.731	A:maj
8B	-cause	.	.	.	.	.	.
16c#	of	.	.	.	.	.	.
16c#	y-	.	.	.	.	.	.
=3	=3	=3	=3	=3	=3	=3	=3
4.d	-you	1.EMm	.	voice	A	9.783	E:7
4.r	.	.	.	.	.	.	.
4.r	.	.	.	.	.	.	.
8f#	I	.	.	.	.	.	.
8f#	cried	.	.	.	.	.	.
8f#	a	.	.	.	.	.	.
=4	=4	=4	=4	=4	=4	=4	=4
8f#	tear	1.EMm	.	voice	.	13.994	E:7
[4d	_	.	.	.	.	.	.
4d]	_	.	.	.	.	.	.
8r	.	.	.	.	.	.	.
4.r	.	.	.	.	.	.	.
8B	be-	.	.	.	.	.	.
8c#	-cause	.	.	.	.	.	.
8d	we're	.	.	.	.	.	.
=5	=5	=5	=5	=5	=5	=5	=5
16e	through	4.AM	.	voice	A	18.204	A:maj
8f#	_	.	.	.	.	.	.
[8.e	_	.	.	.	.	.	.
4e]	_	4.AM	.	voice	.	19.257	A:sus4
8r	.	.	.	.	.	.	.
4.r	.	2.AM	.	voice	.	20.309	A:maj
8e	I	.	.	.	.	.	.
8e	cried	.	.	.	.	.	.
8e	a	.	.	.	.	.	.
=6	=6	=6	=6	=6	=6	=6	=6
[4.a	tear	2.AM	newline	voice	.	22.414	A:maj
4a]	_	.	.	.	.	.	.
8r	.	.	.	.	.	.	.
8r	.	2.AMm	.	voice	.	24.487	A:7
16f#	what	.	.	.	.	.	.
[8.f#	else	.	.	.	.	.	.
16f#]	_	.	.	.	.	.	.
16e	_	.	.	.	.	.	.
8f#	_	.	.	.	.	.	.
8eq	_	.	.	.	.	.	.
8f#	could	.	.	.	.	.	.
=7	=7	=7	=7	=7	=7	=7	=7
8e	I	1.DM	.	voice	.	26.56	D:maj
[4d	do	.	.	.	A	.	.
4.d]	_	.	.	.	.	.	.
4.r	.	.	.	.	.	.	.
8B	but	.	.	.	.	.	.
8A	cry	.	.	.	B	.	.
8A	and	.	.	.	.	.	.
=8	=8	=8	=8	=8	=8	=8	=8
8eq	_	.	.	.	.	.	.
8f#	sigh	2.AM	.	voice	B	30.705	A:maj
[4e	_	.	.	.	.	.	.
4.e]	_	.	.	.	.	.	.
4.r	.	2.EMm	.	voice	.	32.778	E:7
8B	for	.	.	.	.	.	.
8.c#	love	.	.	.	.	.	.
16B	of	.	.	.	.	.	.
=9	=9	=9	=9	=9	=9	=9	=9
16c#Q	_	.	.	.	.	.	.
16BQ	_	.	.	.	.	.	.
2.A	_	2.AM	.	voice	.	34.85	A:maj
4.r	.	2.EMm	.	voice	.	36.923	E:7
8eq	_	.	.	.	.	.	.
8f#	I	.	.	.	.	.	.
8r	.	.	.	.	.	.	.
8e	felt	.	.	.	.	.	.
=10	=10	=10	=10	=10	=10	=10	=10
*>Letter>B	*>Letter>B	*>Letter>B	*>Letter>B	*>Letter>B	*>Letter>B	*>Letter>B	*>Letter>B
*>Label>Verse	*>Label>Verse	*>Label>Verse	*>Label>Verse	*>Label>Verse	*>Label>Verse	*>Label>Verse	*>Label>Verse
8c#	a	4.AM	newline	voice	.	38.996	A:maj
[4c#	tear	.	.	.	.	.	.
8c#]	_	4.AMM	.	voice	.	40.023	A:maj7
4r	.	.	.	.	.	.	.
4.r	.	4.AM	.	voice	.	41.051	A:maj6
8B#q	_	.	.	.	.	.	.
4c#	fall	4.AM	.	voice	.	42.078	A:maj
8B	in	.	.	.	.	.	.
=11	=11	=11	=11	=11	=11	=11	=11
16.c#	my	1.EMm	.	voice	.	43.105	E:7
[16.d	heart	.	.	.	C	.	.
8.d_	_	.	.	.	.	.	.
8.d]	_	.	.	.	.	.	.
16r	.	.	.	.	.	.	.
8r	.	.	.	.	.	.	.
4.r	.	.	.	.	.	.	.
8f#	You	.	.	.	.	.	.
8.f#	fooled	.	.	.	.	.	.
[16f#	me	.	.	.	.	.	.
=12	=12	=12	=12	=12	=12	=12	=12
8f#]	_	1.EMm	.	voice	.	47.215	E:7
[4d	so	.	.	.	.	.	.
4.d]	_	.	.	.	.	.	.
4.r	.	.	.	.	.	.	.
8B	I	.	.	.	.	.	.
16c#	was-	.	.	.	.	.	.
8.d	-n't	.	.	.	.	.	.
=13	=13	=13	=13	=13	=13	=13	=13
16e	smart	4.AM	.	voice	C	51.325	A:maj
16f#	_	.	.	.	.	.	.
[4e	_	.	.	.	.	.	.
4.e]	_	4.AM	.	voice	.	52.352	A:sus4
4.r	.	2.AM	.	voice	.	53.379	A:maj
8e	I	.	.	.	.	.	.
8e	can't	.	.	.	.	.	.
8e	be-	.	.	.	.	.	.
=14	=14	=14	=14	=14	=14	=14	=14
2.a	-lieve	2.AM	newline	voice	.	55.434	A:maj
4.r	.	2.AMm	.	voice	.	57.537	A:7
8f#	that	.	.	.	.	.	.
8.f#	we	.	.	.	.	.	.
16e	_	.	.	.	.	.	.
=15	=15	=15	=15	=15	=15	=15	=15
16f#	_	1.DM	.	voice	.	59.639	D:maj
8e	must	.	.	.	.	.	.
[8.d	part	.	.	.	C	.	.
4.d]	_	.	.	.	.	.	.
4.r	.	.	.	.	.	.	.
16~g#Q	_	.	.	.	.	.	.
16~f#Q	_	.	.	.	.	.	.
16.~e	Come	.	.	.	.	.	.
8eq	_	.	.	.	.	.	.
16.f#	_	.	.	.	.	.	.
16.a	_	.	.	.	.	.	.
8eq	_	.	.	.	.	.	.
16.f#	back	.	.	.	.	.	.
=16	=16	=16	=16	=16	=16	=16	=16
16.a	to	2.AM	.	voice	.	63.844	A:maj
[16.e	stay	.	.	.	.	.	.
8.e_	_	.	.	.	.	.	.
4.e]	_	.	.	.	.	.	.
4.r	.	2.EMm	.	voice	.	65.947	E:7
8B	let's	.	.	.	.	.	.
8c#	make	.	.	.	.	.	.
8B	a	.	.	.	.	.	.
=17	=17	=17	=17	=17	=17	=17	=17
8c#	new	2.AM	.	voice	.	68.05	A:maj
32c#	start	.	.	.	C	.	.
32B	_	.	.	.	.	.	.
[8.A	_	.	.	.	.	.	.
4.A]	_	.	.	.	.	.	.
2.r	.	2.AM	.	voice	.	70.152	A:maj/5
=18	=18	=18	=18	=18	=18	=18	=18
*>Letter>B	*>Letter>B	*>Letter>B	*>Letter>B	*>Letter>B	*>Letter>B	*>Letter>B	*>Letter>B
*>Label>Solo	*>Label>Solo	*>Label>Solo	*>Label>Solo	*>Label>Solo	*>Label>Solo	*>Label>Solo	*>Label>Solo
1.r	.	4.AM	newline	saxophone	.	72.255	A:maj
.	.	4.AMM	.	saxophone	.	73.305	A:maj7
.	.	4.AM	.	saxophone	.	74.356	A:maj6
.	.	4.AM	.	saxophone	.	75.406	A:maj
=19	=19	=19	=19	=19	=19	=19	=19
1.r	.	1.EMm	.	saxophone	.	76.457	E:7
=20	=20	=20	=20	=20	=20	=20	=20
1.r	.	1.EMm	.	saxophone	.	80.659	E:7
=21	=21	=21	=21	=21	=21	=21	=21
1.r	.	4.AM	.	saxophone	.	84.861	A:maj
.	.	4.AM	.	saxophone	.	85.911	A:sus4
.	.	2.AM	.	saxophone	.	86.962	A:maj
=22	=22	=22	=22	=22	=22	=22	=22
1.r	.	2.AM	newline	saxophone	.	89.063	A:maj
.	.	2.AMm	.	saxophone	.	91.18	A:7
=23	=23	=23	=23	=23	=23	=23	=23
1.r	.	1.DM	.	saxophone	.	93.297	D:maj
=24	=24	=24	=24	=24	=24	=24	=24
1.r	.	2.AM	.	saxophone	.	97.532	A:maj
.	.	2.EMm	.	saxophone	.	99.65	E:7
=25	=25	=25	=25	=25	=25	=25	=25
4.r	.	2.AM	.	saxophone	.	101.767	A:maj
4.r	.	.	.	.	.	.	.
4r	.	2.EMm	.	saxophone	.	103.884	E:7
16r	.	.	.	.	.	.	.
16e	I	.	.	.	.	.	.
8f#	_	.	.	.	.	.	.
8e	cried	.	.	.	.	.	.
8c#	a	.	.	.	.	.	.
=26	=26	=26	=26	=26	=26	=26	=26
*>Letter>B	*>Letter>B	*>Letter>B	*>Letter>B	*>Letter>B	*>Letter>B	*>Letter>B	*>Letter>B
*>Label>Verse	*>Label>Verse	*>Label>Verse	*>Label>Verse	*>Label>Verse	*>Label>Verse	*>Label>Verse	*>Label>Verse
8e	tear	4.AM	newline	voice	.	106.002	A:maj
[4c#	_	.	.	.	.	.	.
4.c#]	_	4.AMM	.	voice	.	107.059	A:maj7
4.r	.	4.AM	.	voice	.	108.117	A:maj6
8c#	be-	4.AM	.	voice	.	109.174	A:maj
8B	-cause	.	.	.	.	.	.
16c#	of	.	.	.	.	.	.
16c#	y-	.	.	.	.	.	.
=27	=27	=27	=27	=27	=27	=27	=27
2.d	-you	1.EMm	.	voice	A	110.231	E:7
4r	.	.	.	.	.	.	.
16r	.	.	.	.	.	.	.
16~E	I	.	.	.	.	.	.
8f#	_	.	.	.	.	.	.
8f#	cried	.	.	.	.	.	.
8f#	a	.	.	.	.	.	.
=28	=28	=28	=28	=28	=28	=28	=28
8f#	tear	1.EMm	.	voice	.	114.461	E:7
[4d	_	.	.	.	.	.	.
4d]	_	.	.	.	.	.	.
8r	.	.	.	.	.	.	.
4.r	.	.	.	.	.	.	.
8B	be-	.	.	.	.	.	.
8c#	-cause	.	.	.	.	.	.
8d	we're	.	.	.	.	.	.
=29	=29	=29	=29	=29	=29	=29	=29
16e	through	4.AM	.	voice	A	118.69	A:maj
8f#	_	.	.	.	.	.	.
[8.e	_	.	.	.	.	.	.
4e]	_	4.AM	.	voice	.	119.748	A:sus4
8r	.	.	.	.	.	.	.
4.r	.	2.AM	.	voice	.	120.805	A:maj
8e	Please	.	.	.	.	.	.
8e	make	.	.	.	.	.	.
8e	my	.	.	.	.	.	.
=30	=30	=30	=30	=30	=30	=30	=30
2.a	dreams	2.AM	newline	voice	.	122.92	A:maj
4r	.	2.AMm	.	voice	.	125.036	A:7
[8f#	of	.	.	.	.	.	.
16f#]	_	.	.	.	.	.	.
16e	_	.	.	.	.	.	.
8f#	y-	.	.	.	.	.	.
8eq	_	.	.	.	.	.	.
16.f#	-you	.	.	.	A	.	.
[32e	come	.	.	.	.	.	.
=31	=31	=31	=31	=31	=31	=31	=31
16e]	_	1.DM	.	voice	.	127.152	D:maj
[16d	true	.	.	.	A	.	.
4d_	_	.	.	.	.	.	.
4.d]	_	.	.	.	.	.	.
16.r	.	.	.	.	.	.	.
16.r	.	.	.	.	.	.	.
16.a	Don't	.	.	.	.	.	.
16.e	_	.	.	.	.	.	.
8a	_	.	.	.	.	.	.
8a	make	.	.	.	.	.	.
8a	me	.	.	.	.	.	.
=32	=32	=32	=32	=32	=32	=32	=32
8eq	_	.	.	.	.	.	.
8f#	cry	2.AM	.	voice	.	131.383	A:maj
[4e	_	.	.	.	.	.	.
4.e]	_	.	.	.	.	.	.
4.r	.	2.EMm	.	voice	.	133.499	E:7
8B	a	.	.	.	.	.	.
8c#	tear	.	.	.	.	.	.
8B	for	.	.	.	.	.	.
=33	=33	=33	=33	=33	=33	=33	=33
16c#Q	_	.	.	.	.	.	.
16BQ	_	.	.	.	.	.	.
2.A	_	1.AM	.	voice	.	135.615	A:maj
4.r	.	.	.	.	.	.	.
8eq	_	.	.	.	.	.	.
8.f#	Don't	.	.	.	.	.	.
16.e	make	.	.	.	.	.	.
16.e	me	.	.	.	.	.	.
=34	=34	=34	=34	=34	=34	=34	=34
8e	cry	1.EMm;	newline	voice	.	139.847	E:7
[4B	_	.	.	.	.	.	.
4.B]	_	.	.	.	.	.	.
4.r	.	.	.	.	.	.	.
8d	a	.	.	.	.	.	.
8c#	tear	.	.	.	.	.	.
8B	for	.	.	.	.	.	.
=35	=35	=35	=35	=35	=35	=35	=35
16c#Q	_	.	.	.	.	.	.
16BQ	_	.	.	.	.	.	.
4A	_	1.AM	newline	voice	.	147.096	A:maj
8r	.	.	.	.	.	.	.
4.r	.	.	.	.	.	.	.
2.r	.	.	.	.	.	.	.
r;	.	1r;	.	r	.	153.763	N.C.
r;	.	1r;	.	r	.	156.238	N.C.
*-	*-	*-	*-	*-	*-	*-	*-
!!!BillboardChartDate: 1959/02/09, 1959/02/02, 1959/02/02
!!!BillboardPeak: 6, 6, 6
!!!BillboardWeeksOnChart: 21, 21, 21
!!!COC: LaVern Baker
!!!ENC: Nathaniel Condit-Schultz
!!!EST: Awating manual error checking and editing.
!!!OTL: I Cried A Tear
!!!RDF**chordsym: original McGill chord annotation + (implied pitch class set, with bass pitch in first position)
!!!RDF**harmony: **recip + pitch class of root + harmonic quality
!!!RDF**leadinstrument: original McGill primary instrumentation annotation
!!!RDF**phrase: newline = linebreak in original McGill transcription
!!!RDF**timestamp: McGill audio timestamp in seconds
!!!RDT: 2017/01/12/
!!!SampleActualRank: 12, 19, 19
!!!SampleID#: 822, 954, 1166
!!!SampleTargetRank: 14, 20, 21
